X:1
T:Never Forget
T:John W. Bischoff
T:Never Forget
T:Public Domain
T:Public Domain
T:Public Domain
C:John W. Bischoff
Z:Public Domain
%%score ( 1 2 ) ( 3 4 )
L:1/8
M:6/8
K:Bb
V:1 treble 
V:2 treble 
V:3 bass 
V:4 bass 
V:1
 [DF][DG][DA] [DB][DA][DB] | [Ec][EG][EG] [EG]2 z | [EA][EF][EG] [EA][DB][Fc] | [Fd]3 (F2 E) | %4
w: 1.~Ne- ver for- get that the|Sav- ior is near,|Ask- ing if thou wilt re-|ceive Him. *|
w: 2.~Ne- ver for- get the good|Shep- herd is near,|Faith- ful- ly lead- ing and|guid- ing, *|
 [DF][DG][DA] [DB][DA][DB] | [Ec][EG][EG] [EG]2 z | [EF][EA][Ec] [Ge][Fd][Ec] | [Ec]3 [DB]2 z | %8
w: will pro- tect from all dan-|ger and fear Those|who love, trust and be- lieve|Him. Ne-|
w: not a- way, lest His voice|thou shalt hear, Ten-|der- ly plead- ing and chid-|ing. Ne-|
 [Bd][Bd][Bd] [Ac][Ac][Ac] | [GB][GB][GB] [^FA]3 | GG[FG] [=EG][Ec][GB] | [FA]3 [EG]2 z | %12
w: ver for- get that the Mas-|ter is near, All|of thy life He is view-|doth the|
w: ver for- get the Re- deem-|er is near, Nor|the dear ran- som once giv-|we o-|
 [DF][DG][DA] [DB][DA][DB] | [Ec][EG][EG] [EG]2 z | [EF][EA][Ec] [Ge][Fd][Ec] | [Ec]3 [DB]2 z || %16
w: re- cord be- fore Him ap-|pear, Art thou His|pre- cepts pur- su- ing? *||
w: bey, love, and hon- or Him|here, We shall dwell|with Him in Heav- en. Ne-|ver for-|
"^Refrain" [Ge][Ge][Ge] [Ge]2 z | [Fd][Fd][Fd] [Fd]2 z | [Fc][Fd][Fc] [=Ec][Ed][Ec] | [Fc]3 (CDE) | %20
w: ||||
w: get, ne- ver for-|get, Je- sus is|near, O re- ceive Him. He|will come * *|
 [DF][DG][DA] [DB]2 z | [Ec][EG][EG] [EG]2 z | [CE][EA][Ec] [Ge][Fd][Ec] | [Ec]3 [DB]2 z |] %24
w: ||||
w: cleanse from all sin;|Cheer- ful- ly trust|and be- lieve Him. * *||
V:2
 x6 | x6 | x6 | x3 c3 | x6 | x6 | x6 | x6 | x6 | x6 | GG x4 | x6 | x6 | x6 | x6 | x6 || x6 | x6 | %18
w: |||He|||||||ing; How||||||||
w: |||Turn|||||||en. If||||||||
 x6 | x3 F3 | x6 | x6 | x6 | x6 |] %24
w: ||||||
w: |in,|||||
V:3
 [B,,F,][B,,F,][B,,F,] [B,,F,][B,,F,][B,,F,] | [E,G,][E,C][E,C] [E,C]2 z | %2
 [F,C][F,A,][F,B,] [F,C][F,B,][F,A,] | B,3 [F,A,]3 | [B,,B,][B,,F,][B,,F,] [B,,F,][B,,F,][B,,F,] | %5
 [E,G,][E,C][E,C] [E,C]2 z | [F,C][F,C][F,A,] F,[F,G,][F,A,] | [F,A,]3 [B,,B,]2 z | %8
 [B,F][B,F][B,F] [F,E][F,E][F,E] | [G,D][G,D][G,D] ([D,D]2 C) | %10
 [E,B,][E,B,][D,=B,] [C,C][C,G,][=E,C] | [F,C]3 [F,A,]2 z | %12
 [B,,B,][B,,F,][B,,F,] [B,,F,][B,,F,][B,,F,] | [E,G,][E,C][E,C] [E,C]2 z | %14
 [F,C][F,C][F,A,] F,[F,G,][F,A,] | [F,A,]3 [B,,B,]2 z || [E,B,][E,B,][E,B,] [E,B,]2 z | %17
 [B,,B,][B,,B,][B,,B,] [B,,B,]2 z | [C,A,][C,A,][C,A,] [C,B,][C,B,][C,B,] | [F,A,]3 (A,B,C) | %20
 [B,,B,][B,,F,][B,,F,] [B,,F,]2 z | [E,G,][E,C][E,C] [E,C]2 z | [F,A,][F,C][F,A,] F,[F,G,][F,A,] | %23
 [F,A,]3 [B,,B,]2 z |] %24
V:4
 x6 | x6 | x6 | B,3 x3 | x6 | x6 | x3 F, x2 | x6 | x6 | x5 C | x6 | x6 | x6 | x6 | x3 F, x2 | x6 || %16
 x6 | x6 | x6 | x3 F,3 | x6 | x6 | x3 F, x2 | x6 |] %24

